src/App/SitePart/RulesPage/img/Round.svg

<svg width="400" height="240" fill="none" xmlns="http://www.w3.org/2000/svg"><path fill="#FFF3E0" d="M0 0h400v240H0z"/><rect x="130" y="97" width="140" height="46" rx="10" fill="#FDE679"/><path d="M166.12 114.7h-5.8l-.2 3.76 1.48.12c1.84.133 3.133.513 3.88 1.14.76.627 1.133 1.673 1.12 3.14 0 .48-.033.92-.1 1.32-.067.387-.2.78-.4 1.18-.187.387-.44.713-.76.98s-.753.487-1.3.66c-.533.16-1.167.24-1.9.24-1.28 0-2.647-.167-4.1-.5l.2-1.42c1.347.24 2.513.36 3.5.36 1.227 0 2.047-.22 2.46-.66.427-.44.653-1.16.68-2.16a4.342 4.342 0 0 0-.08-1.08 1.375 1.375 0 0 0-.38-.76 2.257 2.257 0 0 0-.56-.48c-.173-.12-.487-.22-.94-.3-.44-.08-.833-.133-1.18-.16-.347-.04-.873-.08-1.58-.12l-.92-.06a.846.846 0 0 1-.5-.24.75.75 0 0 1-.16-.54l.32-5.92h7.3l-.08 1.5zm13.036 2.56l.14 1.56c.533-.56 1.16-1 1.88-1.32.733-.32 1.453-.48 2.16-.48 1.173 0 2.026.427 2.56 1.28.533.853.8 2.147.8 3.88 0 1.84-.294 3.147-.88 3.92-.587.76-1.52 1.14-2.8 1.14a6.78 6.78 0 0 1-3.6-1c.053.56.066 1.213.04 1.96v2.82h-1.68v-13.76h1.38zm.3 2.74v5.16c1.36.4 2.4.6 3.12.6.88 0 1.493-.247 1.84-.74.346-.493.52-1.44.52-2.84 0-1.36-.167-2.313-.5-2.86-.32-.547-.867-.82-1.64-.82-.894 0-2.007.5-3.34 1.5zm12.02-1.28l-.16-1.26c1.813-.293 3.387-.44 4.72-.44 1.133 0 1.967.24 2.5.72.547.467.82 1.267.82 2.4V127h-1.34l-.2-1.6c-.467.48-1.053.9-1.76 1.26a4.978 4.978 0 0 1-2.26.52c-.893 0-1.6-.233-2.12-.7-.52-.48-.78-1.153-.78-2.02v-1.06c0-.76.233-1.347.7-1.76.48-.427 1.147-.64 2-.64h4.06v-.86c-.013-.613-.16-1.047-.44-1.3-.28-.253-.793-.38-1.54-.38-.947 0-2.347.087-4.2.26zm1.14 4.92v.62c0 .507.12.88.36 1.12.253.227.64.34 1.16.34.52.013 1.1-.107 1.74-.36a6.075 6.075 0 0 0 1.78-1.1v-1.96h-3.76c-.853.04-1.28.487-1.28 1.34zm20.475-6.38l-3.88 10.28c-.52 1.36-1.133 2.307-1.84 2.84-.853.64-2.06.853-3.62.64l.16-1.18c1.053.053 1.833-.093 2.34-.44.547-.387 1-1.047 1.36-1.98l.18-.42h-.38c-.307 0-.513-.147-.62-.44l-3.52-9.3h1.82l2.58 7.26c.147.44.267.833.36 1.18h.28c.093-.267.227-.66.4-1.18l2.56-7.26h1.82zm12.485 0V127h-1.68v-4.52h-5.12V127h-1.68v-9.74h1.68v3.92h5.12v-3.92h1.68zm14.56 8.38v4.24h-1.12l-.14-2.88h-7.88l-.16 2.88h-1.1v-4.24h1.12c.814-1.64 1.3-3.687 1.46-6.14.107-1.493.934-2.24 2.48-2.24h4v8.38h1.34zm-2.96 0v-7.04h-2.1c-.746 0-1.153.393-1.22 1.18-.173 2.427-.66 4.38-1.46 5.86h4.78z" fill="#0097A7"/></svg>

<svg width="400" height="240" viewBox="0 0 400 240" fill="none" xmlns="http://www.w3.org/2000/svg">
<rect width="400" height="240" fill="#FFF3E0"/>
<rect x="130" y="97" width="140" height="46" rx="10" fill="#FDE679"/>
<path d="M166.12 114.7H160.32L160.12 118.46L161.6 118.58C163.44 118.713 164.733 119.093 165.48 119.72C166.24 120.347 166.613 121.393 166.6 122.86C166.6 123.34 166.567 123.78 166.5 124.18C166.433 124.567 166.3 124.96 166.1 125.36C165.913 125.747 165.66 126.073 165.34 126.34C165.02 126.607 164.587 126.827 164.04 127C163.507 127.16 162.873 127.24 162.14 127.24C160.86 127.24 159.493 127.073 158.04 126.74L158.24 125.32C159.587 125.56 160.753 125.68 161.74 125.68C162.967 125.68 163.787 125.46 164.2 125.02C164.627 124.58 164.853 123.86 164.88 122.86C164.893 122.433 164.867 122.073 164.8 121.78C164.747 121.473 164.62 121.22 164.42 121.02C164.233 120.807 164.047 120.647 163.86 120.54C163.687 120.42 163.373 120.32 162.92 120.24C162.48 120.16 162.087 120.107 161.74 120.08C161.393 120.04 160.867 120 160.16 119.96L159.24 119.9C159.04 119.873 158.873 119.793 158.74 119.66C158.62 119.513 158.567 119.333 158.58 119.12L158.9 113.2H166.2L166.12 114.7ZM179.156 117.26L179.296 118.82C179.829 118.26 180.456 117.82 181.176 117.5C181.909 117.18 182.629 117.02 183.336 117.02C184.509 117.02 185.362 117.447 185.896 118.3C186.429 119.153 186.696 120.447 186.696 122.18C186.696 124.02 186.402 125.327 185.816 126.1C185.229 126.86 184.296 127.24 183.016 127.24C181.709 127.24 180.509 126.907 179.416 126.24C179.469 126.8 179.482 127.453 179.456 128.2V131.02H177.776V117.26H179.156ZM179.456 120V125.16C180.816 125.56 181.856 125.76 182.576 125.76C183.456 125.76 184.069 125.513 184.416 125.02C184.762 124.527 184.936 123.58 184.936 122.18C184.936 120.82 184.769 119.867 184.436 119.32C184.116 118.773 183.569 118.5 182.796 118.5C181.902 118.5 180.789 119 179.456 120ZM191.476 118.72L191.316 117.46C193.129 117.167 194.703 117.02 196.036 117.02C197.169 117.02 198.003 117.26 198.536 117.74C199.083 118.207 199.356 119.007 199.356 120.14V127H198.016L197.816 125.4C197.349 125.88 196.763 126.3 196.056 126.66C195.363 127.007 194.609 127.18 193.796 127.18C192.903 127.18 192.196 126.947 191.676 126.48C191.156 126 190.896 125.327 190.896 124.46V123.4C190.896 122.64 191.129 122.053 191.596 121.64C192.076 121.213 192.743 121 193.596 121H197.656V120.14C197.643 119.527 197.496 119.093 197.216 118.84C196.936 118.587 196.423 118.46 195.676 118.46C194.729 118.46 193.329 118.547 191.476 118.72ZM192.616 123.64V124.26C192.616 124.767 192.736 125.14 192.976 125.38C193.229 125.607 193.616 125.72 194.136 125.72C194.656 125.733 195.236 125.613 195.876 125.36C196.516 125.107 197.109 124.74 197.656 124.26V122.3H193.896C193.043 122.34 192.616 122.787 192.616 123.64ZM213.091 117.26L209.211 127.54C208.691 128.9 208.078 129.847 207.371 130.38C206.518 131.02 205.311 131.233 203.751 131.02L203.911 129.84C204.964 129.893 205.744 129.747 206.251 129.4C206.798 129.013 207.251 128.353 207.611 127.42L207.791 127H207.411C207.104 127 206.898 126.853 206.791 126.56L203.271 117.26H205.091L207.671 124.52C207.818 124.96 207.938 125.353 208.031 125.7H208.311C208.404 125.433 208.538 125.04 208.711 124.52L211.271 117.26H213.091ZM225.576 117.26V127H223.896V122.48H218.776V127H217.096V117.26H218.776V121.18H223.896V117.26H225.576ZM240.136 125.64V129.88H239.016L238.876 127H230.996L230.836 129.88H229.736V125.64H230.856C231.67 124 232.156 121.953 232.316 119.5C232.423 118.007 233.25 117.26 234.796 117.26H238.796V125.64H240.136ZM237.176 125.64V118.6H235.076C234.33 118.6 233.923 118.993 233.856 119.78C233.683 122.207 233.196 124.16 232.396 125.64H237.176Z" fill="#0097A7"/>
</svg>
